icon/fa/laptop-medical.svg

<svg xmlns="http://www.w3.org/2000/svg" viewBox="0 0 640 512"><!--! Font Awesome Free 6.1.2 by @fontawesome - https://fontawesome.com License - https://fontawesome.com/license/free (Icons: CC BY 4.0, Fonts: SIL OFL 1.1, Code: MIT License) Copyright 2022 Fonticons, Inc.--><path d="M624 384H16c-8.75 0-16 7.3-16 16v16c0 35.25 28.75 64 64 64h512c35.25 0 64-28.75 64-64v-16c0-8.7-7.2-16-16-16zM128 96h384v256h64V80c0-26.37-21.6-48-48-48H112c-26.37 0-48 21.63-48 48v272h64V96zm176 240h32c8.801 0 16-7.201 16-16v-48h48c8.8 0 16-7.2 16-16v-32c0-8.801-7.199-16-16-16h-48v-48c0-8.801-7.199-16-16-16h-32c-8.8 0-16 7.2-16 16v48h-48c-8.8 0-16 7.2-16 16v32c0 8.799 7.199 16 16 16h48v48c0 8.8 7.2 16 16 16z"/></svg>

<svg xmlns="http://www.w3.org/2000/svg" viewBox="0 0 640 512" height="1em" width="1em">
<!--! Font Awesome Free 6.1.2 by @fontawesome - https://fontawesome.com License - https://fontawesome.com/license/free (Icons: CC BY 4.0, Fonts: SIL OFL 1.1, Code: MIT License) Copyright 2022 Fonticons, Inc.-->
  <path d="M624 384h-608C7.25 384 0 391.3 0 400V416c0 35.25 28.75 64 64 64h512c35.25 0 64-28.75 64-64v-16C640 391.3 632.8 384 624 384zM128 96h384v256h64V80C576 53.63 554.4 32 528 32h-416C85.63 32 64 53.63 64 80V352h64V96zM304 336h32c8.801 0 16-7.201 16-16V272h48C408.8 272 416 264.8 416 256V224c0-8.801-7.199-16-16-16H352V160c0-8.801-7.199-16-16-16h-32C295.2 144 288 151.2 288 160v48H240C231.2 208 224 215.2 224 224v32c0 8.799 7.199 16 16 16H288V320C288 328.8 295.2 336 304 336z"/>
</svg>
